src/images/icons/social/facebook.svg

<svg width="37" height="36" viewBox="0 0 37 36" fill="none" xmlns="http://www.w3.org/2000/svg">
<path fill-rule="evenodd" clip-rule="evenodd" d="M6.16683 3H30.8335C32.5364 3 33.9168 4.34315 33.9168 6V30C33.9168 31.6569 32.5364 33 30.8335 33H6.16683C4.46395 33 3.0835 31.6569 3.0835 30V6C3.0835 4.34315 4.46395 3 6.16683 3ZM6.16683 6V30H30.8335V6H6.16683ZM17.1636 18.0066H20.0418V27H23.1252V18.0066H26.1814V15.0066H23.1252V13.5C23.1252 12.6716 23.8154 12 24.6668 12H26.2085V9H24.6668C22.1125 9 20.0418 11.0147 20.0418 13.5V15.0066H17.1636V18.0066Z" fill="black"/>
</svg>

<?xml version="1.0" encoding="utf-8"?>
<!-- Generator: Adobe Illustrator 24.1.1, SVG Export Plug-In . SVG Version: 6.00 Build 0)  -->
<svg version="1.1" id="facebook" xmlns="http://www.w3.org/2000/svg" xmlns:xlink="http://www.w3.org/1999/xlink" x="0px" y="0px"
	 viewBox="0 0 37 36" style="enable-background:new 0 0 37 36;" xml:space="preserve">
<style type="text/css">
	.stfb0{fill-rule:evenodd;clip-rule:evenodd;}
</style>
<path class="stfb0" d="M6.2,3h24.7c1.7,0,3.1,1.3,3.1,3v24c0,1.7-1.4,3-3.1,3H6.2c-1.7,0-3.1-1.3-3.1-3V6C3.1,4.3,4.5,3,6.2,3z M6.2,6
	v24h24.7V6H6.2z M17.2,18H20v9h3.1v-9h3.1v-3h-3.1v-1.5c0-0.8,0.7-1.5,1.5-1.5h1.5V9h-1.5c-2.6,0-4.6,2-4.6,4.5V15h-2.9V18z"/>
</svg>
